X: 22569
T: Lady Margaret Stewart
R: reel
M: 4/4
K: Bminor
g|~f2Bf dBfB|(f/^g/a) ef cAec|~f2Bf dBfd|ecac B/B/B B:|
A|FB~B>c dBcA|EAA>B ~c>dec|FBB>c dBdb|a>fec B/B/B ~B2|
FB~B>c dBcA|EAA>B ~c>dec|dBdb cAce|dfec B/B/B B||

